X: 122
M: C|
L: 1/8
K: G
V: 1
c |\
gdec (B/c/d/c/) BG | A=fcf (A/_B/c/B/) AF |\
V: 2 clef=bass middle=d
z | g2g2 g2g2 | a2g2 d2d2 | g2g2 =f2f2 | g2d2 G2G :|
z | g2g2 g2g2 | f2f2 f2f2 | g2g2 g2g2 | g2g2 g2g2 |
g2c2 g2g2 | =f2a2 f2^f2 | g2g2 g2=f2 | =f2^f2 g2g |]


